X:1
T:Title
%%score { 1 | 2 }
L:1/8
M:3/4
K:Eb
V:1 treble nm="Grand Piano"
V:2 bass 
V:1
 z2 z2[Q:1/4=112] G2 | G2 G2 A2 | B2 B2 B2 | c2 B2 =A2 | B4 [GB]2 | [GB]2 [FA]2 [EG]2 | %6
 [FA]2 [GB]2 [FA]2 | [FA]2 [EG]2 [DF]2 | G4 G2 | G2 G2 A2 | B2 B2 B2 | [Ec]2 [Ed]2 [Ec]2 | B4 B2 | %13
 e2 [Ed]2 [Ec]2 | B2 e2 E2 | G2 A2 [DF]2 | E6 | [Ec]3 [Ec] [Ec]2 | [Ec]2 [Ed]2 [Ec]2 | B2 G2 A2 | %20
 B6 | [GB]2 [FA]2 [FA]2 | [FA]2 [EG]2 [DF]2 | G2 G2 A2 | B6 | [Ec]3 [Ec] [Ec]2 | %26
 [Ec]2 [Ed]2 [Ec]2 | B2 G2 c2 | B6 | e2 [Ed]2 [Ec]2 | [EB]2 [B,E]2 [CFA]2 | [EG]2 [FA]2 [DF]2 | %32
[M:2/4] E4 |] %33
V:2
 z2 z2 [E,B,E]2 | [E,B,E]2 [E,B,E]2 [E,F,E]2 | [E,G,E]2 [E,G,E]2 [E,G,E]2 | %3
 [E,A,E]2 [E,G,E]2 [E,_G,E]2 | [E,G,E]4 [E,B,]2 | [B,,B,]2 [B,,B,]2 [B,,B,]2 | %6
 [B,,B,]2 [B,,B,]2 [B,,B,]2 | [B,,B,]2 [B,,B,]2 [B,,B,]2 | [E,B,E]4 [E,B,E]2 | %9
 [E,B,E]2 [E,B,E]2 [E,F,E]2 | [E,G,E]2 [E,G,E]2 [E,G,E]2 | [A,,A,]2 [A,,B,]2 [A,,A,]2 | %12
 [E,G,E]4 [E,G,E]2 | [A,,CE]2 [A,,B,]2 [C,A,]2 | [E,G,E]2[K:treble] [G,B,E]2 [A,C]2 | %15
 [B,E]2 [B,F]2[K:bass] [B,,A,]2 | [E,G,]6 | [A,,A,]3 [A,,A,] [A,,A,]2 | [A,,A,]2 [A,,B,]2 [C,A,]2 | %19
 [E,G,E]2 [E,B,E]2 [E,F,E]2 | [E,G,E]6 | [B,,B,]2 [B,,B,]2 [B,,B,]2 | [B,,B,]2 [B,,B,]2 [B,,B,]2 | %23
 [E,B,E]2 [E,B,E]2 [E,F,E]2 | [E,G,E]6 | [A,,A,]3 [A,,A,] [A,,A,]2 | [A,,A,]2 [A,,B,]2 [C,A,]2 | %27
 [E,G,E]2 [E,B,E]2 [E,A,E]2 | [E,G,E]6 | [A,,CE]2 [A,,B,]2 [C,A,]2 | [E,G,]2 [G,,G,]2 [A,,A,]2 | %31
 [B,,B,]2 [B,,B,]2 [B,,A,]2 |[M:2/4] [E,G,]4 |] %33

